Sources/FrostedUI/Resources/Icons.xcassets/rotateLeft20.imageset/rotate-left-20.svg

<svg width="20" height="20" viewBox="0 0 20 20" fill="none" xmlns="http://www.w3.org/2000/svg" data-fui-icon="true">
  <path
    d="M10.0664 2.25C6.80778 2.25009 4.80228 3.95638 3.75 5.80078V3.48047C3.74984 3.06639 3.41411 2.73047 3 2.73047C2.58589 2.73047 2.25016 3.06639 2.25 3.48047V7.71191C2.2502 8.56519 2.93723 9.26942 3.7998 9.26953H8C8.4141 9.26952 8.74984 8.9336 8.75 8.51953C8.75 8.10533 8.4142 7.76954 8 7.76953H4.52148C5.06668 5.94381 6.73957 3.75011 10.0664 3.75C13.8746 3.75 16.25 6.59931 16.25 10C16.25 13.4007 13.8746 16.25 10.0664 16.25C7.34804 16.2499 5.17462 14.5217 4.30859 12.46C4.14821 12.0781 3.70807 11.8982 3.32617 12.0586C2.94465 12.2191 2.76563 12.6583 2.92578 13.04C4.00509 15.61 6.69264 17.7499 10.0664 17.75C14.7915 17.75 17.75 14.1378 17.75 10C17.75 5.86223 14.7915 2.25 10.0664 2.25Z"
    fill="currentColor"
  />
</svg>

<svg xmlns="http://www.w3.org/2000/svg" width="20" height="20" fill="none" data-fui-icon="true" viewBox="0 0 20 20"><path fill="currentColor" d="M10.066 2.25c-3.258 0-5.264 1.706-6.316 3.55V3.48a.75.75 0 0 0-1.5 0v4.232c0 .853.687 1.557 1.55 1.558H8a.75.75 0 0 0 0-1.5H4.521c.546-1.826 2.219-4.02 5.545-4.02 3.809 0 6.184 2.85 6.184 6.25s-2.375 6.25-6.184 6.25c-2.718 0-4.891-1.728-5.757-3.79a.75.75 0 0 0-1.383.58c1.08 2.57 3.767 4.71 7.14 4.71 4.725 0 7.684-3.612 7.684-7.75s-2.959-7.75-7.684-7.75"/></svg>
